icons/chatgpt-dark.svg

<svg width="256" height="256" viewBox="0 0 256 256" fill="none" xmlns="http://www.w3.org/2000/svg">
<rect x="0.00282288" y="0.000518799" width="256" height="256" rx="50" fill="#282828"/>
<path d="M197.439 113.487C199.258 108.102 199.89 102.387 199.29 96.7344C198.691 91.0821 196.874 85.6269 193.965 80.7437C189.627 73.3148 183.046 67.4529 175.166 64.0008C167.245 60.5215 158.432 59.6141 149.968 61.4065C146.136 57.149 141.442 53.7557 136.198 51.4522C130.939 49.1411 125.252 47.965 119.507 48.0008C110.868 47.9767 102.44 50.6672 95.412 55.6922C88.4301 60.68 83.2201 67.764 80.5387 75.9151C74.9108 77.0503 69.5869 79.3638 64.917 82.7037C60.2684 86.0245 56.3837 90.3011 53.5235 95.2466C49.1764 102.622 47.3182 111.201 48.2237 119.715C49.1293 128.229 52.7504 136.225 58.5517 142.521C56.7332 147.905 56.1016 153.618 56.7003 159.269C57.299 164.92 59.1138 170.375 62.02 175.258C66.3578 182.687 72.9395 188.549 80.8187 192.001C88.74 195.48 97.553 196.388 106.017 194.595C109.847 198.853 114.539 202.246 119.782 204.55C125.038 206.858 130.73 208.035 136.483 208.001C145.128 208.031 153.563 205.342 160.596 200.315C167.586 195.324 172.801 188.231 175.481 180.069C181.108 178.937 186.432 176.625 191.102 173.287C195.75 169.964 199.633 165.685 202.49 160.738C206.831 153.362 208.684 144.785 207.774 136.275C206.864 127.764 203.241 119.773 197.439 113.481V113.487ZM136.815 197.544C128.747 197.544 122.502 195.098 117.045 190.601C117.29 190.47 117.725 190.235 118.005 190.064L150.288 171.664C151.092 171.211 151.761 170.553 152.227 169.757C152.693 168.961 152.939 168.055 152.939 167.132V122.218L166.59 129.989C166.66 130.026 166.721 130.079 166.766 130.143C166.812 130.208 166.842 130.283 166.853 130.361V167.549C166.853 184.418 152.619 197.544 136.815 197.544ZM71.2137 170.024C67.6552 163.971 66.3689 156.848 67.5854 149.932C67.8253 150.075 68.2425 150.332 68.5453 150.504L100.829 168.904C101.635 169.369 102.549 169.614 103.48 169.614C104.411 169.614 105.325 169.369 106.131 168.904L145.546 146.447V161.989C145.55 162.069 145.535 162.148 145.501 162.22C145.467 162.292 145.416 162.354 145.351 162.401L112.719 181.001C105.72 184.972 97.4434 186.042 89.6638 183.984C81.9108 181.949 75.2824 176.931 71.2137 170.024ZM62.7057 100.481C66.2761 94.3816 71.8732 89.7285 78.5217 87.3323V125.229C78.5129 126.154 78.7547 127.063 79.2216 127.861C79.6884 128.659 80.3628 129.316 81.173 129.761L120.582 152.218L106.937 159.989C106.87 160.033 106.794 160.06 106.714 160.068C106.634 160.076 106.554 160.065 106.48 160.035L73.8306 141.424C70.3923 139.469 67.3734 136.856 64.9467 133.733C62.52 130.61 60.7332 127.038 59.6888 123.224C58.656 119.423 58.3904 115.454 58.9073 111.549C59.4243 107.645 60.7193 103.882 62.7057 100.481ZM174.829 126.229L135.415 103.772L149.06 96.0008C149.127 95.957 149.203 95.93 149.283 95.922C149.362 95.9141 149.443 95.9254 149.517 95.9551L182.16 114.555C187.143 117.392 191.214 121.59 193.897 126.658C196.563 131.702 197.719 137.408 197.224 143.092C196.729 148.776 194.606 154.196 191.108 158.704C187.59 163.247 182.854 166.699 177.452 168.658V130.755C177.462 129.835 177.224 128.929 176.762 128.132C176.301 127.336 175.633 126.678 174.829 126.229ZM188.411 106.041C188.094 105.848 187.774 105.66 187.451 105.475L155.168 87.0751C154.361 86.6108 153.447 86.3664 152.517 86.3664C151.586 86.3664 150.672 86.6108 149.865 87.0751L110.451 109.532V93.978C110.446 93.8986 110.462 93.8193 110.496 93.7474C110.529 93.6756 110.581 93.6134 110.645 93.5666L143.283 74.9894C148.292 72.1412 154.002 70.76 159.76 71.0035C165.517 71.247 171.09 73.1055 175.841 76.3665C180.561 79.6063 184.258 84.1263 186.497 89.3951C188.725 94.6523 189.388 100.424 188.411 106.041ZM103.034 133.767L89.3781 125.995C89.3067 125.96 89.2452 125.908 89.1993 125.843C89.1533 125.778 89.1245 125.703 89.1153 125.624V88.4294C89.121 82.7323 90.7723 77.1551 93.8692 72.3494C96.9844 67.5296 101.405 63.6948 106.617 61.2922C111.851 58.879 117.657 57.9851 123.374 58.7126C129.091 59.44 134.489 61.7595 138.952 65.4065C138.628 65.5774 138.308 65.7545 137.992 65.938L105.708 84.338C104.904 84.7908 104.235 85.4488 103.768 86.2449C103.301 87.0409 103.054 87.9466 103.051 88.8694L103.034 133.767ZM110.445 117.995L127.998 108.001L145.551 118.001V138.001L127.998 147.995L110.445 137.995V117.995Z" fill="white"/>
</svg>

<svg xmlns="http://www.w3.org/2000/svg" width="256" height="256" fill="none"><rect width="256" height="256" x=".003" y=".001" fill="#282828" rx="50"/><path fill="#fff" d="M197.439 113.487a39.36 39.36 0 0 0-3.474-32.743A40.67 40.67 0 0 0 175.166 64a41.35 41.35 0 0 0-25.198-2.595 40.4 40.4 0 0 0-13.77-9.954A40.85 40.85 0 0 0 119.507 48a41.23 41.23 0 0 0-24.095 7.691 40.35 40.35 0 0 0-14.873 20.223 40.7 40.7 0 0 0-15.622 6.789 40.1 40.1 0 0 0-11.394 12.543 39.88 39.88 0 0 0 5.029 47.274 39.37 39.37 0 0 0 3.468 32.737A40.67 40.67 0 0 0 80.819 192a41.35 41.35 0 0 0 25.198 2.594 40.3 40.3 0 0 0 13.765 9.955A40.9 40.9 0 0 0 136.483 208a41.22 41.22 0 0 0 24.113-7.686 40.34 40.34 0 0 0 14.885-20.246 40.65 40.65 0 0 0 15.621-6.782 40.05 40.05 0 0 0 11.388-12.549 39.87 39.87 0 0 0-5.051-47.257zm-60.624 84.057c-8.068 0-14.313-2.446-19.77-6.943.245-.131.68-.366.96-.537l32.283-18.4a5.21 5.21 0 0 0 2.651-4.532v-44.914l13.651 7.771a.5.5 0 0 1 .263.372v37.188c0 16.869-14.234 29.995-30.038 29.995m-65.601-27.52a29.55 29.55 0 0 1-3.629-20.092c.24.143.658.4.96.572l32.284 18.4a5.3 5.3 0 0 0 5.302 0l39.415-22.457v15.542a.48.48 0 0 1-.195.412l-32.632 18.6a30.77 30.77 0 0 1-23.055 2.983 30.36 30.36 0 0 1-18.45-13.96m-8.508-69.543a30.2 30.2 0 0 1 15.816-13.149v37.897a5.11 5.11 0 0 0 2.651 4.532l39.409 22.457-13.645 7.771a.5.5 0 0 1-.457.046l-32.65-18.611a30.08 30.08 0 0 1-14.141-18.2 29.7 29.7 0 0 1-.782-11.675 29.7 29.7 0 0 1 3.799-11.068m112.123 25.748-39.414-22.457 13.645-7.771a.5.5 0 0 1 .457-.046l32.643 18.6a30.17 30.17 0 0 1 11.737 12.103 29.66 29.66 0 0 1-2.789 32.046 30.37 30.37 0 0 1-13.656 9.954v-37.903a5.12 5.12 0 0 0-2.623-4.526m13.582-20.188a42 42 0 0 0-.96-.566l-32.283-18.4a5.32 5.32 0 0 0-5.303 0l-39.414 22.457V93.978a.47.47 0 0 1 .194-.411l32.638-18.578a30.71 30.71 0 0 1 32.558 1.377 30.07 30.07 0 0 1 10.656 13.03 29.6 29.6 0 0 1 1.914 16.645m-85.377 27.726-13.656-7.772a.47.47 0 0 1-.263-.371V88.429a29.74 29.74 0 0 1 4.754-16.08 30.26 30.26 0 0 1 12.748-11.057 30.75 30.75 0 0 1 32.335 4.114q-.486.256-.96.532l-32.284 18.4a5.22 5.22 0 0 0-2.657 4.531zm7.411-15.772 17.553-9.994 17.553 10v20l-17.553 9.994-17.553-10z"/></svg>
